assets/cursors/default.svg

<?xml version="1.0" encoding="UTF-8" standalone="no"?>
<svg
   width="16"
   height="16"
   viewBox="0 0 16 16"
   fill="none"
   version="1.1"
   id="svg7"
   sodipodi:docname="default.svg"
   inkscape:version="1.4 (e7c3feb1, 2024-10-09)"
   xml:space="preserve"
   xmlns:inkscape="http://www.inkscape.org/namespaces/inkscape"
   xmlns:sodipodi="http://sodipodi.sourceforge.net/DTD/sodipodi-0.dtd"
   xmlns="http://www.w3.org/2000/svg"
   xmlns:svg="http://www.w3.org/2000/svg"><defs
     id="defs7" /><sodipodi:namedview
     id="namedview7"
     pagecolor="#505050"
     bordercolor="#eeeeee"
     borderopacity="1"
     inkscape:showpageshadow="0"
     inkscape:pageopacity="0"
     inkscape:pagecheckerboard="0"
     inkscape:deskcolor="#505050"
     inkscape:zoom="32"
     inkscape:cx="5.15625"
     inkscape:cy="9.1875"
     inkscape:window-width="1440"
     inkscape:window-height="847"
     inkscape:window-x="0"
     inkscape:window-y="25"
     inkscape:window-maximized="0"
     inkscape:current-layer="svg7"
     showguides="false"><sodipodi:guide
       position="7.9956897,17.508621"
       orientation="1,0"
       id="guide7"
       inkscape:locked="false" /><sodipodi:guide
       position="2.34375,7.8125"
       orientation="0,-1"
       id="guide8"
       inkscape:locked="false" /><sodipodi:guide
       position="6.6138867,8.9594109"
       orientation="0,-1"
       id="guide9"
       inkscape:locked="false" /><sodipodi:guide
       position="6.800569,7.0392503"
       orientation="0,-1"
       id="guide10"
       inkscape:locked="false" /><sodipodi:guide
       position="6.0005021,16.075431"
       orientation="1,0"
       id="guide11"
       inkscape:locked="false" /><sodipodi:guide
       position="10.987586,11.279605"
       orientation="1,0"
       id="guide12"
       inkscape:locked="false" /><sodipodi:guide
       position="6.9072446,14.986582"
       orientation="0,-1"
       id="guide20"
       inkscape:locked="false" /><sodipodi:guide
       position="7.1739336,1.0120793"
       orientation="0,-1"
       id="guide21"
       inkscape:locked="false" /><sodipodi:guide
       position="7.6006359,17.040087"
       orientation="1,0"
       id="guide22"
       inkscape:locked="false" /><sodipodi:guide
       position="8.4007029,13.359779"
       orientation="1,0"
       id="guide23"
       inkscape:locked="false" /><sodipodi:guide
       position="9.3874521,14.186515"
       orientation="0,-1"
       id="guide24"
       inkscape:locked="false" /><sodipodi:guide
       position="6.5605489,1.7854773"
       orientation="0,-1"
       id="guide25"
       inkscape:locked="false" /><sodipodi:guide
       position="9.2807765,8.2126818"
       orientation="0,-1"
       id="guide26"
       inkscape:locked="false" /><sodipodi:guide
       position="9.3607832,7.8126483"
       orientation="0,-1"
       id="guide27"
       inkscape:locked="false" /><sodipodi:guide
       position="6.0005021,13.866488"
       orientation="1,0"
       id="guide28"
       inkscape:locked="false" /><sodipodi:guide
       position="10.000837,12.586381"
       orientation="1,0"
       id="guide29"
       inkscape:locked="false" /><sodipodi:guide
       position="1.1031789,13.256196"
       orientation="0,-1"
       id="guide30"
       inkscape:locked="false" /><sodipodi:guide
       position="4.8537394,13.466455"
       orientation="1,0"
       id="guide31"
       inkscape:locked="false" /><sodipodi:guide
       position="4.1298492,10.738685"
       orientation="0,-1"
       id="guide32"
       inkscape:locked="false" /><sodipodi:guide
       position="3.5546875,15.783136"
       orientation="0,-1"
       id="guide33"
       inkscape:locked="false" /><sodipodi:guide
       position="2.2346444,12.351024"
       orientation="0,-1"
       id="guide34"
       inkscape:locked="false" /></sodipodi:namedview><g
     id="g8"
     transform="matrix(0.40398435,0,0,0.40398435,-2.0529061,-2.1966346)"
     inkscape:label="default"
     style="display:inline"><path
       id="path65"
       style="display:inline;fill:#41ab33;fill-opacity:1;stroke:#ffffff;stroke-opacity:1;stroke-width:0.50497006;stroke-dasharray:none"
       inkscape:label="arrow-r"
       d="M 15.07488 6.0030796 C 14.922776 6.0012398 14.773301 6.0301034 14.634926 6.0901034 C 14.276926 6.2451034 14.001586 6.5911998 14.001586 7.0521998 L 14.001586 37.718417 C 14.001586 38.628417 15.062401 39.123308 15.761401 38.540308 L 22.839336 32.637195 L 27.504778 43.365294 C 27.736778 43.898294 28.354489 44.14361 28.887489 43.91161 L 30.753666 43.099388 L 30.753666 43.104223 L 32.542489 42.321009 C 33.075489 42.089009 33.320805 41.471297 33.088805 40.938297 L 28.46204 30.292387 L 36.560087 29.567189 C 37.467087 29.486189 37.866435 28.378854 37.222435 27.734854 L 15.795243 6.3076629 C 15.585243 6.0976629 15.328386 6.006146 15.07488 6.0030796 z " /><g
       id="g50"
       inkscape:label="arrow"
       style="display:inline"><path
         fill="#199be2"
         d="m 33.089,40.938 -4.628,-10.647 8.1,-0.726 c 0.907,-0.081 1.307,-1.184 0.663,-1.828 L 15.796,6.31 C 15.46,5.974 15.003,5.931 14.634,6.091 l 16.118,37.011 1.792,-0.779 c 0.533,-0.232 0.777,-0.852 0.545,-1.385 z"
         id="path3"
         style="display:inline;fill:#41ab33;fill-opacity:1"
         inkscape:label="arrow-r" /><path
         fill="#35c1f1"
         d="m 14,7.054 v 30.663 c 0,0.91 1.062,1.407 1.761,0.824 l 7.078,-5.903 4.664,10.728 c 0.232,0.533 0.851,0.777 1.384,0.545 L 30.752,43.1 14.634,6.091 C 14.276,6.246 14,6.593 14,7.054 Z"
         id="path1-4"
         style="display:inline;fill:#6ccf5d;fill-opacity:1"
         inkscape:label="arrow-l" /></g></g></svg>

<?xml version="1.0" encoding="UTF-8" standalone="no"?>
<svg
   width="19.740156"
   height="27.228497"
   viewBox="0 0 19.740157 27.228497"
   fill="none"
   version="1.1"
   id="svg7"
   sodipodi:docname="default.svg"
   inkscape:version="1.4 (e7c3feb1, 2024-10-09)"
   xml:space="preserve"
   xmlns:inkscape="http://www.inkscape.org/namespaces/inkscape"
   xmlns:sodipodi="http://sodipodi.sourceforge.net/DTD/sodipodi-0.dtd"
   xmlns="http://www.w3.org/2000/svg"
   xmlns:svg="http://www.w3.org/2000/svg"><defs
     id="defs7" /><sodipodi:namedview
     id="namedview7"
     pagecolor="#505050"
     bordercolor="#eeeeee"
     borderopacity="1"
     inkscape:showpageshadow="0"
     inkscape:pageopacity="0"
     inkscape:pagecheckerboard="0"
     inkscape:deskcolor="#505050"
     inkscape:zoom="13.847614"
     inkscape:cx="19.172979"
     inkscape:cy="19.786803"
     inkscape:window-width="1440"
     inkscape:window-height="847"
     inkscape:window-x="57"
     inkscape:window-y="565"
     inkscape:window-maximized="0"
     inkscape:current-layer="g32"
     showguides="false"><sodipodi:guide
       position="-13.06983,79.843129"
       orientation="1,0"
       id="guide7"
       inkscape:locked="false" /><sodipodi:guide
       position="-18.72177,70.147009"
       orientation="0,-1"
       id="guide8"
       inkscape:locked="false" /><sodipodi:guide
       position="-14.451633,71.293919"
       orientation="0,-1"
       id="guide9"
       inkscape:locked="false" /><sodipodi:guide
       position="-14.264951,69.37376"
       orientation="0,-1"
       id="guide10"
       inkscape:locked="false" /><sodipodi:guide
       position="-15.065018,78.409939"
       orientation="1,0"
       id="guide11"
       inkscape:locked="false" /><sodipodi:guide
       position="-10.077934,73.614119"
       orientation="1,0"
       id="guide12"
       inkscape:locked="false" /><sodipodi:guide
       position="-14.158275,77.321099"
       orientation="0,-1"
       id="guide20"
       inkscape:locked="false" /><sodipodi:guide
       position="-13.891586,63.34659"
       orientation="0,-1"
       id="guide21"
       inkscape:locked="false" /><sodipodi:guide
       position="-13.464884,79.374599"
       orientation="1,0"
       id="guide22"
       inkscape:locked="false" /><sodipodi:guide
       position="-12.664817,75.694289"
       orientation="1,0"
       id="guide23"
       inkscape:locked="false" /><sodipodi:guide
       position="-11.678068,76.521029"
       orientation="0,-1"
       id="guide24"
       inkscape:locked="false" /><sodipodi:guide
       position="-14.504971,64.11999"
       orientation="0,-1"
       id="guide25"
       inkscape:locked="false" /><sodipodi:guide
       position="-11.784743,70.547199"
       orientation="0,-1"
       id="guide26"
       inkscape:locked="false" /><sodipodi:guide
       position="-11.704737,70.147159"
       orientation="0,-1"
       id="guide27"
       inkscape:locked="false" /><sodipodi:guide
       position="-15.065018,76.200999"
       orientation="1,0"
       id="guide28"
       inkscape:locked="false" /><sodipodi:guide
       position="-11.064683,74.920889"
       orientation="1,0"
       id="guide29"
       inkscape:locked="false" /><sodipodi:guide
       position="-19.962341,75.590709"
       orientation="0,-1"
       id="guide30"
       inkscape:locked="false" /><sodipodi:guide
       position="-16.211781,75.800969"
       orientation="1,0"
       id="guide31"
       inkscape:locked="false" /><sodipodi:guide
       position="-16.935671,73.073199"
       orientation="0,-1"
       id="guide32"
       inkscape:locked="false" /><sodipodi:guide
       position="-17.510832,78.117649"
       orientation="0,-1"
       id="guide33"
       inkscape:locked="false" /><sodipodi:guide
       position="-18.830876,74.685539"
       orientation="0,-1"
       id="guide34"
       inkscape:locked="false" /></sodipodi:namedview><g
     id="g32"
     transform="matrix(0.40398435,0,0,0.40398435,-23.118426,-19.677672)"
     inkscape:label="pointer"
     style="display:inline;stroke-width:0.257436;stroke-dasharray:none"><g
       id="g8"
       transform="matrix(1.28,0,0,1.28,56.985233,59.087736)"
       inkscape:label="default"
       style="display:inline"><path
         id="path65"
         style="display:inline;fill:#41ab33;fill-opacity:1;stroke:#ffffff;stroke-width:0.50497;stroke-dasharray:none;stroke-opacity:1"
         inkscape:label="arrow-r"
         d="m 15.07488,6.0030796 c -0.152104,-0.00184 -0.301579,0.027024 -0.439954,0.087024 -0.358,0.155 -0.63334,0.5010964 -0.63334,0.9620964 v 30.666217 c 0,0.91 1.060815,1.404891 1.759815,0.821891 l 7.077935,-5.903113 4.665442,10.728099 c 0.232,0.533 0.849711,0.778316 1.382711,0.546316 l 1.866177,-0.812222 v 0.0048 l 1.788823,-0.783214 c 0.533,-0.232 0.778316,-0.849712 0.546316,-1.382712 l -4.626765,-10.64591 8.098047,-0.725198 c 0.907,-0.081 1.306348,-1.188335 0.662348,-1.832335 L 15.795243,6.3076629 c -0.21,-0.21 -0.466857,-0.3015169 -0.720363,-0.3045833 z" /><g
         id="g50"
         inkscape:label="arrow"
         style="display:inline"><path
           fill="#199be2"
           d="m 33.089,40.938 -4.628,-10.647 8.1,-0.726 c 0.907,-0.081 1.307,-1.184 0.663,-1.828 L 15.796,6.31 C 15.46,5.974 15.003,5.931 14.634,6.091 l 16.118,37.011 1.792,-0.779 c 0.533,-0.232 0.777,-0.852 0.545,-1.385 z"
           id="path3"
           style="display:inline;fill:#41ab33;fill-opacity:1"
           inkscape:label="arrow-r" /><path
           fill="#35c1f1"
           d="m 14,7.054 v 30.663 c 0,0.91 1.062,1.407 1.761,0.824 l 7.078,-5.903 4.664,10.728 c 0.232,0.533 0.851,0.777 1.384,0.545 L 30.752,43.1 14.634,6.091 C 14.276,6.246 14,6.593 14,7.054 Z"
           id="path1-4"
           style="display:inline;fill:#6ccf5d;fill-opacity:1"
           inkscape:label="arrow-l" /></g></g></g></svg>
